X:1
T:Fear Not
T:Fear Not
T:Edmund Simon Lorenz
T:Viola B. Hall, 1894
T:Public Domain Courtesy of the Cyber Hymnal™
C:Edmund Simon Lorenz
Z:Public Domain
Z:Courtesy of the Cyber Hymnal™
%%score ( 1 2 ) ( 3 4 )
L:1/8
Q:1/4=100
M:4/4
K:Eb
V:1 treble 
V:2 treble 
V:3 bass 
V:4 bass 
V:1
 E2 E2 [DF]2 [DF]2 | [EG]>[FA] [GB]>[EG] E4 | (F3 G) E2 [EG]2 | (F3 G) E2 z2 | E2 E2 [DF]2 [DF]2 | %5
w: 1.~March right for- ward,|lit- tle Christ- ian bands;|Fear * not! oh,|fear * not!|God will give the|
w: 2.~Fol- low Christ your|lead- er to the end;|Fear * not! oh,|fear * not!|He will guide you,|
w: 3.~Ear- ly called to|bat- tle for the Lord;|Fear * not! oh,|fear * not!|Strug- gle brave- ly,|
w: 4.~Ev- ery bat- tle|brings you add- ed power;|Fear * not! oh,|fear * not!|Grow then grand- ly,|
 [EG]>[FA] [GB]>[EG] E4 | (F3 G) E2 [EG]2 | (F3 G) E2 z2 || %8
w: bat- tle to your hands;|Fear * not! oh,|fear * not!|
w: ev- er will de- fend;|Fear * not! oh,|fear * not!|
w: trust- ing in His Word;|Fear * not! oh,|fear * not!|
w: ev- ery day and hour!|Fear * not! oh,|fear * not!|
"^Refrain" [Ec]>[Ec] [Ec]>[Ec] [Ec]2 [Ec]2 | [Ec]2 [EB]2 [EB]2 [EG]2 | %10
w: ||
w: What tho’ fierce and long the|strife is rag- ing,|
w: ||
w: ||
 [FA]>[FA] [FA]>[FA] [FA]2 [FA]2 | [EA]2 [EG]2 [EG]2 [EB]2 | [Ec]>[Ec] [Ec]>[Ec] [Ec]2 [Ec]2 | %13
w: |||
w: God is on your side, the|foe en- gag- ing;|Ev- ery wound He heals, the|
w: |||
w: |||
 [Ec]2 [EB]2 [EB]2 [EG]2 | (F3 G) E2 [EG]2 | (F3 G) E2 z2 |] %16
w: |||
w: pain as- suag- ing;|Fear * not! oh,|fear * not!|
w: |||
w: |||
V:2
 E2 E2 x4 | x4 E4 | D4 E2 x2 | D4 E2 x2 | E2 E2 x4 | x4 E4 | D4 E2 x2 | D4 E2 x2 || x8 | x8 | x8 | %11
 x8 | x8 | x8 | D4 E2 x2 | D4 E2 x2 |] %16
V:3
 [E,G,]2 [E,G,]2 [B,,B,]2 [B,,B,]2 | [E,B,]>[E,B,] [E,B,]>[E,B,] [E,G,]4 | %2
 (A,3 B,) [E,G,]2 [E,B,]2 | (A,3 B,) [E,G,]2 z2 | [E,G,]2 [E,G,]2 [B,,B,]2 [B,,B,]2 | %5
 [E,B,]>[E,B,] [E,B,]>[E,B,] [E,G,]4 | (A,3 B,) [E,G,]2 [E,B,]2 | (A,3 B,) [E,G,]2 z2 || %8
 A,>A, A,>A, A,2 A,2 | [E,A,]2 [E,G,]2 [E,G,]2 [E,B,]2 | %10
 [B,,B,]>[B,,B,] [B,,B,]>[B,,B,] [B,,B,]2 [B,,B,]2 | [E,C]2 [E,B,]2 [E,B,]2 [E,G,]2 | %12
 A,>A, A,>A, A,2 A,2 | [E,A,]2 [E,G,]2 [E,G,]2 [E,B,]2 | (A,3 B,) [E,G,]2 [E,B,]2 | %15
 (A,3 B,) [E,G,]2 z2 |] %16
V:4
 x8 | x8 | B,,4 x4 | B,,4 x4 | x8 | x8 | B,,4 x4 | B,,4 x4 || A,>A, A,>A, A,2 A,2 | x8 | x8 | x8 | %12
 A,>A, A,>A, A,2 A,2 | x8 | B,,4 x4 | B,,4 x4 |] %16

